svg/car_arrow_right.svg

<svg xmlns="http://www.w3.org/2000/svg" viewBox="0 0 24 24"><path d="M12 18c0-3.31 2.69-6 6-6 1.09 0 2.12.3 3 .81V12l-2.08-6c-.2-.58-.76-1-1.42-1h-11c-.66 0-1.22.42-1.42 1L3 12v8c0 .55.45 1 1 1h1c.55 0 1-.45 1-1v-1h6.09c-.05-.33-.09-.66-.09-1M6.5 6.5h11L19 11H5zm0 9.5c-.83 0-1.5-.67-1.5-1.5S5.67 13 6.5 13s1.5.67 1.5 1.5S7.33 16 6.5 16M19 21v-2h-4v-2h4v-2l3 3z"/></svg>

<?xml version="1.0" encoding="UTF-8"?><!DOCTYPE svg PUBLIC "-//W3C//DTD SVG 1.1//EN" "http://www.w3.org/Graphics/SVG/1.1/DTD/svg11.dtd"><svg xmlns="http://www.w3.org/2000/svg" xmlns:xlink="http://www.w3.org/1999/xlink" version="1.1" id="mdi-car-arrow-right" width="24" height="24" viewBox="0 0 24 24"><path d="M12 18C12 14.69 14.69 12 18 12C19.09 12 20.12 12.3 21 12.81V12L18.92 6C18.72 5.42 18.16 5 17.5 5H6.5C5.84 5 5.28 5.42 5.08 6L3 12V20C3 20.55 3.45 21 4 21H5C5.55 21 6 20.55 6 20V19H12.09C12.04 18.67 12 18.34 12 18M6.5 6.5H17.5L19 11H5L6.5 6.5M6.5 16C5.67 16 5 15.33 5 14.5S5.67 13 6.5 13 8 13.67 8 14.5 7.33 16 6.5 16M19 21V19H15V17H19V15L22 18L19 21" /></svg>
